X:071
U: ~ = !turn!
%%topmargin 3cm
T:First Month of Summer
B:Traditional Irish Fiddle Tunes. Randy Miller and Jack Perron.
Z:Transcribed by Ralph Palmer
S:Andy McGann
R:Reel
L:1/8
M:C|
K:A
{/d}cB | AF ~F2 E1 CE | A,ECE ((3.d.c.B) cB | AF ~F2 EA, ~A,2 | CEAB c2 ::
Bc | ec ~c2 ecfc | ec ~c2 {/g}fefa | ec ~c2 fcec | ((3dcB) ((3cBA) Bcdf |
ec ~c2 ecfc | ec ~c2 {/g}fefg | ((3agf) ((3gfe) fcec | ((3dcB) ((3cBA) JB2 cB |]
